X:77
T:No.77 Paddy Hiudai's Jig
C:jig
M:6/8
L:1/8
K:D
cBA ecA|fed cBA|def gfg|
BBB Bed|cBA ecA|fed cBA|
c2e dBG|[1ABA Aed:|[2ABA Ace||
afa geg|fed cBA|def gfg|
BcB Bfg|afa geg|fed cBA|
c2e dBG|[1ABA Ace:|[2ABA Aed||

